src/conversation.svg

<?xml version="1.0" encoding="UTF-8" standalone="no"?>
<svg width="20px" height="20px" viewBox="0 0 20 20" version="1.1" xmlns="http://www.w3.org/2000/svg" xmlns:xlink="http://www.w3.org/1999/xlink">
    <!-- Generator: Sketch 3.7.2 (28276) - http://www.bohemiancoding.com/sketch -->
    <title>conversation</title>
    <desc>Created with Sketch.</desc>
    <defs></defs>
    <g id="Page-1" stroke="none" stroke-width="1" fill="none" fill-rule="evenodd">
        <g id="conversation" fill="#000000">
            <path d="M14,11 L8.00585866,11 C6.89706013,11 6,10.1081436 6,9.00798298 L6,1.99201702 C6,0.900176167 6.89805351,0 8.00585866,0 L17.9941413,0 C19.1029399,0 20,0.891856397 20,1.99201702 L20,9.00798298 C20,10.0998238 19.1019465,11 17.9941413,11 L17,11 L17,14 L14,11 Z M14,13 L14,15.007983 C14,16.1081436 13.1029399,17 11.9941413,17 L6,17 L3,20 L3,17 L2.00585866,17 C0.898053512,17 0,16.0998238 0,15.007983 L0,7.99201702 C0,6.8918564 0.897060126,6 2.00585866,6 L4,6 L4,8.99349548 C4,11.2060545 5.78916089,13 7.99620271,13 L14,13 Z" id="Combined-Shape"></path>
        </g>
    </g>
</svg>

<svg xmlns="http://www.w3.org/2000/svg" viewBox="0 0 20 20"><path d="M17 11v3l-3-3H8a2 2 0 0 1-2-2V2c0-1.1.9-2 2-2h10a2 2 0 0 1 2 2v7a2 2 0 0 1-2 2h-1zm-3 2v2a2 2 0 0 1-2 2H6l-3 3v-3H2a2 2 0 0 1-2-2V8c0-1.1.9-2 2-2h2v3a4 4 0 0 0 4 4h6z"/></svg>
